public/notFound/12.svg

<svg width="1840" height="1380" viewBox="0 0 1840 1380" fill="none" xmlns="http://www.w3.org/2000/svg"><path fill-rule="evenodd" clip-rule="evenodd" d="M1250 1041.34c2.36-12.3 4.73-21.81 7.09-28.52 2.37-6.71 6.94-16.873 13.72-30.479 5.35 12.753 8.98 22.129 10.88 28.129 1.9 6.01 2.84 11.09 2.84 15.24.21-3.97 1.31-8.27 3.31-12.89 2-4.63 5.62-11.27 10.88-19.929 5.81 10.469 9.91 18.409 12.29 23.839 2.39 5.42 5.38 13.63 8.99 24.61h-70zm-165 30c1.96-12.3 3.92-21.81 5.88-28.52 1.96-6.71 5.75-16.87 11.36-30.48 4.44 12.75 7.44 22.13 9.02 28.13 1.57 6.01 2.35 11.09 2.35 15.24.17-3.97 1.08-8.27 2.74-12.89 1.66-4.63 4.66-11.27 9.01-19.93 4.82 10.47 8.22 18.41 10.19 23.84 1.98 5.42 4.46 13.63 7.45 24.61h-58z" fill="#FF946A"/><path fill-rule="evenodd" clip-rule="evenodd" d="M1024.74 1049.79v-52.598h55.74v52.598m57.41 2.24v-33.01h73.02v44.2" fill="#F4E5AD"/><path fill-rule="evenodd" clip-rule="evenodd" d="M1210.35 1129.25v-89.53h101.45v89.03" fill="#F4E5AD"/><path fill-rule="evenodd" clip-rule="evenodd" d="M1019.17 1084.49v-53.72h11.14v9.51h6.69v-9.51h11.71v9.51h6.69v-9.51h11.7v9.51h6.69v-9.51h13.94v57.08" fill="#AFA26E"/><path fill-rule="evenodd" clip-rule="evenodd" d="M1302.88 1129.25V997.192h54.63V1128.5m-349.49-45.13v45.32h94.75v-14.66c0-16.94 13.73-30.66 30.66-30.66s30.66 13.72 30.66 30.66v14.66h51.28v-88.41h-14.49l-2.23 11.75h-10.04v-11.75h-19.5v11.75h-10.04v-11.75h-18.95v11.75h-9.48v-11.75h-18.95v17.91h-18.39l-17.28 25.18h-68z" fill="#DACA8B"/><path fill-rule="evenodd" clip-rule="evenodd" d="M1003 1118.06h104.79v11.19H1003v-11.19zm158.3 0h59.09v11.19h-59.09v-11.19z" fill="#AFA26E"/><path fill-rule="evenodd" clip-rule="evenodd" d="M1037 1072.18v-17.93c0-2.46 2-4.46 4.46-4.46s4.46 2 4.46 4.46v17.93H1037zm207.91 27.98v-17.93c0-2.46 2-4.46 4.46-4.46s4.46 2 4.46 4.46v17.93h-8.92zm-183.94-27.98v-17.93c0-2.46 2-4.46 4.46-4.46s4.46 2 4.46 4.46v17.93h-8.92zm207.91 27.98v-17.93c0-2.46 2-4.46 4.46-4.46s4.46 2 4.46 4.46v17.93h-8.92zm57.41-50.37v-17.92c0-2.46 2-4.46 4.46-4.46 2.47 0 4.46 2 4.46 4.46v17.92h-8.92zm0 49.25v-17.93c0-2.46 2-4.46 4.46-4.46 2.47 0 4.46 2 4.46 4.46v17.93h-8.92zm-141.58 19.02v-17.93c0-4.31 3.5-7.81 7.81-7.81s7.8 3.5 7.8 7.81v17.93h-15.61zm-25.48-164.698 17.12-38.429 22.23 49.894a691.06 691.06 0 0 0 5.08 8.863c6.11 10.429 15.4 25.538 27.87 45.33-24.12 2.88-42.79 4.32-56.03 4.32-13.24 0-32.09-1.44-56.56-4.32 13.78-20.112 23.63-35.221 29.54-45.33 3.64-6.225 7.23-13.001 10.75-20.328zm-147.31 43.83c9.81-9.468 16.5-19.167 20.06-29.098 3.57-9.931 10.63-28.211 21.19-54.84 10.52 26.147 17.58 44.426 21.18 54.84 3.6 10.413 10.1 20.113 19.51 29.098-13.01 2.239-26.76 3.358-41.25 3.358-14.49 0-28.06-1.119-40.69-3.358zm277.58 2.239c9.82-9.468 16.5-19.168 20.07-29.099 3.57-9.931 10.63-28.211 21.18-54.839 10.52 26.146 17.58 44.426 21.18 54.839 3.6 10.413 10.1 20.113 19.51 29.099-13 2.239-26.75 3.359-41.25 3.359-14.49 0-28.05-1.12-40.69-3.359z" fill="#334E62"/><path fill-rule="evenodd" clip-rule="evenodd" d="M1115.4 624.081c13.15 47.989 11.78 86.899-4.1 116.729-15.88 29.83-21.91 67.455-18.07 112.876l39.63-50.424c-.58 28.969-.22 51.083 1.08 66.341 1.3 15.257 4.1 30.289 8.41 45.097l19.27-42.604c8.39 18.663 17.57 34.229 27.53 46.699 9.97 12.47 26.14 28.63 48.51 48.479 4.2-30.282 6.22-53.273 6.06-68.974-.15-15.701-2.55-31.073-7.19-46.115l27.24 28.776c1.81-14.707-.01-28.156-5.46-40.346-5.44-12.191-13.25-28.942-23.43-50.254l42.92 32.866c-13.08-40.318-36.9-74.035-71.44-101.151s-55.66-59.201-63.38-96.256c-4.63-2.104-8.74-3.3-12.36-3.587-3.62-.287-8.69.329-15.22 1.848z" fill="#FF946A"/><path fill-rule="evenodd" clip-rule="evenodd" d="M1127.34 624.192c5.87 26.413 10.31 48.328 13.34 65.745 2.04 11.743 4.01 28.789 5.92 51.136a100.018 100.018 0 0 0 29.08 62.337l14.45 14.393 1.84-7.19a99.96 99.96 0 0 0-9.97-74.267c-10.91-19.18-19.23-34.834-24.93-46.961-8.82-18.733-16.81-41.044-23.96-66.934l-5.77 1.741z" fill="#FFE676"/><path fill-rule="evenodd" clip-rule="evenodd" d="M960 899.998c-4.5 11.12-8.765 19.033-12.793 23.74-2.117 2.473-4.817 5.372-8.101 8.697a2.382 2.382 0 0 1-3.818-2.752l5.245-10.322a2.308 2.308 0 0 0-1.412-3.262 3.615 3.615 0 0 0-4.109 1.608l-11.315 18.822a2 2 0 0 1-3.703-1.248l2.32-21.139 15.988-21.801L960 899.998z" fill="#437BA6"/><path fill-rule="evenodd" clip-rule="evenodd" d="m760 888.001-85.142-104.66-151.569 46.988a3 3 0 0 0 .603 5.852l74.73 7.137 19.464 41.148a2.999 2.999 0 0 0 3.831 1.5l44.377-17.842 32.672 25.395a3 3 0 0 0 1.829.632l46.862.19 12.343-6.34z" fill="#334E62"/><path fill-rule="evenodd" clip-rule="evenodd" d="m861.31 872.839 33.305 49.063 11.326-27.171a26.005 26.005 0 0 1 7.705-10.257c11.19-8.999 27.556-7.223 36.555 3.967L960 900.625l-9.112-.127a17 17 0 0 0-14.811 8.246l-33.389 55.597-39.765-28.685 2.787 108.594 29.935 29.83 30.097 7.12a4.994 4.994 0 0 1 1.313 9.21l-44.599 25.27c-.009.01-.018.01-.028.02-12.021 6.79-27.272 2.55-34.063-9.47l-31.862-56.4h-32.991v59.76l19.581 10.94a4.006 4.006 0 0 1-1.951 7.5h-68.323c-.726 0-1.452-.05-2.173-.14-9.868-1.2-16.895-10.17-15.696-20.04l7.054-58.02-104.97 55.9a47.93 47.93 0 0 1-16.312 5.23L469 1128.25l206.034-154.378 49.076-110.607a24.93 24.93 0 0 1 2.791-4.781l-1.802.002 18.416-435.503c2.224-52.579 44.817-94.437 97.427-95.744l277.558-6.898c53-1.667 79.5 28.667 79.5 91 0 9.371-10.83 59.371-32.5 150 13.63 12.063 14.9 32.89 2.84 46.519-.77.862-1.57 1.683-2.42 2.46-.07.06-.13.12-.2.181a43.145 43.145 0 0 1-6.97 5.333l.92 5.312c.35 2.05.2 4.154-.43 6.136-2.17 6.843-9.48 10.63-16.32 8.457l-15.27-4.847-11.95 7.011a13.027 13.027 0 0 1-4.1 1.549c-7.05 1.367-13.87-3.239-15.24-10.288l-3.63-18.751-.23-.072-22.5-49-85-68-69.341-4.132c-9.626-.573-17.993 6.54-18.977 16.133l-35.833 349.536.461 17.961z" fill="#7AC6FF"/><path fill-rule="evenodd" clip-rule="evenodd" d="M1171.12 507.335c5.16-4.106 17.49-.6 16.62 9.211-.86 9.811-7.79 25.407-19.46 15.511-11.66-9.896-2.31-20.617 2.84-24.722zm-95.06 3.716c2.52-6.089 15-9 19 0s5.5 26-9.5 23-12.01-16.912-9.5-23z" fill="#fff"/><path fill-rule="evenodd" clip-rule="evenodd" d="M1167.06 522.142a2.495 2.495 0 0 1 2.54-2.456l11 .192a2.492 2.492 0 0 1 2.45 2.543 2.495 2.495 0 0 1-2.54 2.456l-11-.192a2.492 2.492 0 0 1-2.45-2.543zm-87.56.059a2.502 2.502 0 0 1 2.54-2.456l11 .192a2.506 2.506 0 0 1 2.46 2.543 2.5 2.5 0 0 1-2.54 2.456l-11-.192a2.506 2.506 0 0 1-2.46-2.543z" fill="#334E62"/><path fill-rule="evenodd" clip-rule="evenodd" d="M721.651 1049.25 706 1133.34l95.451-.5a7.996 7.996 0 0 0 7.958-8.04 8.018 8.018 0 0 0-1.015-3.86l-1.22-2.18-20.123-9.53-3.354-59.42-62.046-.56zm-27-284.895-131.953 21.638a3 3 0 0 0-.213 5.878l85.363 20.437 6.196 42.051a3 3 0 0 0 3.24 2.55l63.027-5.741 14.259 30.168a3.003 3.003 0 0 0 2.338 1.694l58.584 7.366 10.099 10.985a4.696 4.696 0 0 0 6.064.729 4.479 4.479 0 0 0 1.486-5.796l-4.428-8.495a83.19 83.19 0 0 1-.787-1.547l-42.402-85.553c-13.072-26.373-41.826-41.127-70.873-36.364z" fill="#437BA6"/><path fill-rule="evenodd" clip-rule="evenodd" d="m731.849 714.093-61.654 43.795a3 3 0 0 1-4.443-3.74L737.6 604.021l-56.428 27.164a3 3 0 0 1-4.043-3.92l63.879-143.897-38.13 20.201a3 3 0 0 1-4.115-3.936l50.485-106.548-17.399 321.008zm221.194-390.454L898.72 383.97a5 5 0 0 1-8.446-4.965l15.28-44.62-92.058 67.299a5.002 5.002 0 0 1-7.493-6.127l31.106-67.601 115.934-4.317zM675 974.341l-43.912 8.738a3 3 0 0 0-2.018 4.433l6.263 10.942-37.457 9.806a3 3 0 0 0-2.143 3.66c.146.56.45 1.07.876 1.45l8.164 7.49-39.64 10.1a3 3 0 0 0-.337 5.71l12.751 4.91-43.033 16.64a2.996 2.996 0 0 0 .476 5.73l16.442 3.39L675 974.341zm432.79-435.399c-.12 5.962-30.41-27.768-68.55-112.04-13.63-30.125-35.82-90.092-66.575-179.902l58.145 97.17 11.83-66.149 22.19 123.577 17.64-29.588c17.07 102.129 25.51 157.773 25.32 166.932zm57.07-4.872c-2.71 3.736-6.92-31.19 6.24-101.735 4.71-25.218 17.19-73.216 37.46-143.994l-6.24 87.649 36.68-36.782-40.58 88.432 24.19-10.956c-34.34 72.518-53.59 111.647-57.75 117.386z" fill="#334E62"/><path d="M1165.93 561.377c-.2.513-.79.764-1.3.56a1.005 1.005 0 0 1-.56-1.298c9.22-23.221 25.7-29.117 48.88-17.526 6.44 3.221 13.11 9.343 20.98 18.774 3.18 3.819 6.53 8.117 10.66 13.654 2.21 2.968 9.9 13.436 10.95 14.856 14.77 19.937 24.56 31.186 35.43 39.226 13.8 10.207 27.15 12.682 41.12 6.308 5.11-2.334 9.73-4.638 13.84-6.91 14.82-8.183 20.2-26.828 12.02-41.645a30.925 30.925 0 0 0-5.88-7.555c-7.25-6.787-18.63-6.414-25.42.833-.52.56-1.01 1.153-1.46 1.776l-2.88 3.996a.994.994 0 0 1-1.39.226 1.002 1.002 0 0 1-.23-1.396l2.88-3.996c.5-.691 1.04-1.35 1.62-1.973 7.55-8.054 20.19-8.468 28.24-.926a32.752 32.752 0 0 1 6.27 8.048c8.71 15.784 2.98 35.646-12.8 44.362-4.16 2.299-8.82 4.625-13.98 6.98-14.69 6.703-28.79 4.089-43.14-6.52-11.08-8.194-20.96-19.553-35.84-39.644-1.06-1.425-8.75-11.889-10.96-14.85-4.11-5.511-7.43-9.782-10.59-13.568-7.71-9.237-14.2-15.197-20.34-18.267-22.15-11.075-37.34-5.638-46.12 16.475zm-69.36 3c-8.78-22.113-23.97-27.55-46.12-16.475-8.18 4.087-16.24 13.859-26.77 31.071a509.936 509.936 0 0 0-5.7 9.57 856.16 856.16 0 0 0-2.87 4.927c.12-.205-2.23 3.844-2.88 4.97-13.781 23.737-21.576 35.256-31.027 43.847-12.494 11.357-24.996 13.044-38.29 3.363-22.577-16.442-26.601-35.016-11.894-55.266 6.858-9.442 20.07-11.537 29.511-4.679a21.12 21.12 0 0 1 7.41 9.791 1 1 0 0 1-1.877.691 19.123 19.123 0 0 0-6.708-8.864c-8.548-6.208-20.509-4.312-26.717 4.236-14.028 19.314-10.271 36.654 11.452 52.474 12.469 9.08 23.932 7.532 35.768-3.226 9.242-8.401 16.97-19.822 30.642-43.371.65-1.125 3-5.174 2.88-4.969 1.15-1.99 2.02-3.483 2.87-4.933 2.16-3.706 3.98-6.76 5.72-9.605 10.73-17.526 18.96-27.504 27.58-31.816 23.19-11.591 39.66-5.695 48.88 17.526.2.513-.05 1.094-.56 1.298a1.005 1.005 0 0 1-1.3-.56z" fill="#334E62"/><path fill-rule="evenodd" clip-rule="evenodd" d="M1097.5 563.841c14.57 1.446 24.41 5.946 29.5 13.5s3.43 17.887-5 31l-24.5-44.5z" fill="#437BA6"/></svg>

<svg width="1840" height="1380" viewBox="0 0 1840 1380" fill="none" xmlns="http://www.w3.org/2000/svg">
<path fill-rule="evenodd" clip-rule="evenodd" d="M1250 1041.34C1252.36 1029.04 1254.73 1019.53 1257.09 1012.82C1259.46 1006.11 1264.03 995.947 1270.81 982.341C1276.16 995.094 1279.79 1004.47 1281.69 1010.47C1283.59 1016.48 1284.53 1021.56 1284.53 1025.71C1284.74 1021.74 1285.84 1017.44 1287.84 1012.82C1289.84 1008.19 1293.46 1001.55 1298.72 992.891C1304.53 1003.36 1308.63 1011.3 1311.01 1016.73C1313.4 1022.15 1316.39 1030.36 1320 1041.34H1250ZM1085 1071.34C1086.96 1059.04 1088.92 1049.53 1090.88 1042.82C1092.84 1036.11 1096.63 1025.95 1102.24 1012.34C1106.68 1025.09 1109.68 1034.47 1111.26 1040.47C1112.83 1046.48 1113.61 1051.56 1113.61 1055.71C1113.78 1051.74 1114.69 1047.44 1116.35 1042.82C1118.01 1038.19 1121.01 1031.55 1125.36 1022.89C1130.18 1033.36 1133.58 1041.3 1135.55 1046.73C1137.53 1052.15 1140.01 1060.36 1143 1071.34H1085Z" fill="#FF946A"/>
<path fill-rule="evenodd" clip-rule="evenodd" d="M1024.74 1049.79V997.192H1080.48V1049.79" fill="#F4E5AD"/>
<path fill-rule="evenodd" clip-rule="evenodd" d="M1137.89 1052.03V1019.02H1210.91V1040.28V1063.22" fill="#F4E5AD"/>
<path fill-rule="evenodd" clip-rule="evenodd" d="M1210.35 1129.25V1039.72H1311.8V1128.75" fill="#F4E5AD"/>
<path fill-rule="evenodd" clip-rule="evenodd" d="M1019.17 1084.49V1030.77H1030.31V1040.28H1037V1030.77H1048.71V1040.28H1055.4V1030.77H1067.1V1040.28H1073.79V1030.77H1087.73V1087.85" fill="#AFA26E"/>
<path fill-rule="evenodd" clip-rule="evenodd" d="M1302.88 1129.25V997.192H1357.51V1128.5" fill="#DACA8B"/>
<path fill-rule="evenodd" clip-rule="evenodd" d="M1008.02 1083.37V1128.69H1102.77V1114.03C1102.77 1097.09 1116.5 1083.37 1133.43 1083.37C1150.36 1083.37 1164.09 1097.09 1164.09 1114.03V1128.69H1215.37V1040.28H1200.88L1198.65 1052.03H1188.61V1040.28H1169.11V1052.03H1159.07V1040.28H1140.12V1052.03H1130.64V1040.28H1111.69V1058.19H1093.3L1076.02 1083.37H1008.02Z" fill="#DACA8B"/>
<path fill-rule="evenodd" clip-rule="evenodd" d="M1003 1118.06H1107.79V1129.25H1003V1118.06ZM1161.3 1118.06H1220.39V1129.25H1161.3V1118.06Z" fill="#AFA26E"/>
<path fill-rule="evenodd" clip-rule="evenodd" d="M1037 1072.18V1054.25C1037 1051.79 1039 1049.79 1041.46 1049.79C1043.92 1049.79 1045.92 1051.79 1045.92 1054.25V1072.18H1037ZM1244.91 1100.16V1082.23C1244.91 1079.77 1246.91 1077.77 1249.37 1077.77C1251.83 1077.77 1253.83 1079.77 1253.83 1082.23V1100.16H1244.91ZM1060.97 1072.18V1054.25C1060.97 1051.79 1062.97 1049.79 1065.43 1049.79C1067.89 1049.79 1069.89 1051.79 1069.89 1054.25V1072.18H1060.97ZM1268.88 1100.16V1082.23C1268.88 1079.77 1270.88 1077.77 1273.34 1077.77C1275.8 1077.77 1277.8 1079.77 1277.8 1082.23V1100.16H1268.88ZM1326.29 1049.79V1031.87C1326.29 1029.41 1328.29 1027.41 1330.75 1027.41C1333.22 1027.41 1335.21 1029.41 1335.21 1031.87V1049.79H1326.29ZM1326.29 1099.04V1081.11C1326.29 1078.65 1328.29 1076.65 1330.75 1076.65C1333.22 1076.65 1335.21 1078.65 1335.21 1081.11V1099.04H1326.29ZM1184.71 1118.06V1100.13C1184.71 1095.82 1188.21 1092.32 1192.52 1092.32C1196.83 1092.32 1200.32 1095.82 1200.32 1100.13V1118.06H1184.71Z" fill="#334E62"/>
<path fill-rule="evenodd" clip-rule="evenodd" d="M1159.23 953.362L1176.35 914.933L1198.58 964.827C1200.29 967.867 1201.99 970.821 1203.66 973.69C1209.77 984.119 1219.06 999.228 1231.53 1019.02C1207.41 1021.9 1188.74 1023.34 1175.5 1023.34C1162.26 1023.34 1143.41 1021.9 1118.94 1019.02C1132.72 998.908 1142.57 983.799 1148.48 973.69C1152.12 967.465 1155.71 960.689 1159.23 953.362ZM1011.92 997.192C1021.73 987.724 1028.42 978.025 1031.98 968.094C1035.55 958.163 1042.61 939.883 1053.17 913.254C1063.69 939.401 1070.75 957.68 1074.35 968.094C1077.95 978.507 1084.45 988.207 1093.86 997.192C1080.85 999.431 1067.1 1000.55 1052.61 1000.55C1038.12 1000.55 1024.55 999.431 1011.92 997.192ZM1289.5 999.431C1299.32 989.963 1306 980.263 1309.57 970.332C1313.14 960.401 1320.2 942.121 1330.75 915.493C1341.27 941.639 1348.33 959.919 1351.93 970.332C1355.53 980.745 1362.03 990.445 1371.44 999.431C1358.44 1001.67 1344.69 1002.79 1330.19 1002.79C1315.7 1002.79 1302.14 1001.67 1289.5 999.431Z" fill="#334E62"/>
<path fill-rule="evenodd" clip-rule="evenodd" d="M1115.4 624.081C1128.55 672.07 1127.18 710.98 1111.3 740.81C1095.42 770.64 1089.39 808.265 1093.23 853.686L1132.86 803.262C1132.28 832.231 1132.64 854.345 1133.94 869.603C1135.24 884.86 1138.04 899.892 1142.35 914.7L1161.62 872.096C1170.01 890.759 1179.19 906.325 1189.15 918.795C1199.12 931.265 1215.29 947.425 1237.66 967.274C1241.86 936.992 1243.88 914.001 1243.72 898.3C1243.57 882.599 1241.17 867.227 1236.53 852.185L1263.77 880.961C1265.58 866.254 1263.76 852.805 1258.31 840.615C1252.87 828.424 1245.06 811.673 1234.88 790.361L1277.8 823.227C1264.72 782.909 1240.9 749.192 1206.36 722.076C1171.82 694.96 1150.7 662.875 1142.98 625.82C1138.35 623.716 1134.24 622.52 1130.62 622.233C1127 621.946 1121.93 622.562 1115.4 624.081Z" fill="#FF946A"/>
<path fill-rule="evenodd" clip-rule="evenodd" d="M1127.34 624.192C1133.21 650.605 1137.65 672.52 1140.68 689.937C1142.72 701.68 1144.69 718.726 1146.6 741.073C1148.62 764.636 1158.92 786.723 1175.68 803.41L1190.13 817.803L1191.97 810.613C1198.4 785.501 1194.83 758.874 1182 736.346C1171.09 717.166 1162.77 701.512 1157.07 689.385C1148.25 670.652 1140.26 648.341 1133.11 622.451L1127.34 624.192Z" fill="#FFE676"/>
<path fill-rule="evenodd" clip-rule="evenodd" d="M960 899.998C955.5 911.118 951.235 919.031 947.207 923.738C945.09 926.211 942.39 929.11 939.106 932.435C938.182 933.371 936.673 933.381 935.737 932.456C935 931.728 934.818 930.607 935.288 929.683L940.533 919.361C941.11 918.224 940.657 916.835 939.52 916.258C939.392 916.193 939.258 916.14 939.121 916.099C937.545 915.64 935.858 916.3 935.012 917.707L923.697 936.529C923.127 937.476 921.899 937.782 920.952 937.213C920.283 936.811 919.909 936.056 919.994 935.281L922.314 914.142L938.302 892.341L960 899.998Z" fill="#437BA6"/>
<path fill-rule="evenodd" clip-rule="evenodd" d="M760 888.001L674.858 783.341L523.289 830.329C521.707 830.82 520.821 832.5 521.312 834.083C521.67 835.239 522.688 836.066 523.892 836.181L598.622 843.318L618.086 884.466C618.765 885.901 620.444 886.559 621.917 885.966L666.294 868.124L698.966 893.519C699.489 893.926 700.132 894.148 700.795 894.151L747.657 894.341L760 888.001Z" fill="#334E62"/>
<path fill-rule="evenodd" clip-rule="evenodd" d="M861.31 872.839L894.615 921.902L905.941 894.731C907.613 890.722 910.261 887.196 913.646 884.474C924.836 875.475 941.202 877.251 950.201 888.441L960 900.625L950.888 900.498C944.835 900.414 939.194 903.554 936.077 908.744L902.688 964.341L862.923 935.656L865.71 1044.25L895.645 1074.08L925.742 1081.2C927.095 1081.52 928.255 1082.39 928.941 1083.6C930.302 1086 929.458 1089.05 927.055 1090.41L882.456 1115.68C882.447 1115.69 882.438 1115.69 882.428 1115.7C870.407 1122.49 855.156 1118.25 848.365 1106.23L816.503 1049.83H783.512V1109.59L803.093 1120.53C804.358 1121.24 805.142 1122.58 805.142 1124.03C805.142 1126.23 803.351 1128.03 801.142 1128.03H732.819C732.093 1128.03 731.367 1127.98 730.646 1127.89C720.778 1126.69 713.751 1117.72 714.95 1107.85L722.004 1049.83L617.034 1105.73C611.953 1108.44 606.428 1110.21 600.722 1110.96L469 1128.25L675.034 973.872L724.11 863.265C724.871 861.549 725.81 859.95 726.901 858.484L725.099 858.486L743.515 422.983C745.739 370.404 788.332 328.546 840.942 327.239L1118.5 320.341C1171.5 318.674 1198 349.008 1198 411.341C1198 420.712 1187.17 470.712 1165.5 561.341C1179.13 573.404 1180.4 594.231 1168.34 607.86C1167.57 608.722 1166.77 609.543 1165.92 610.32C1165.85 610.38 1165.79 610.44 1165.72 610.501C1163.56 612.534 1161.22 614.315 1158.75 615.834L1159.67 621.146C1160.02 623.196 1159.87 625.3 1159.24 627.282C1157.07 634.125 1149.76 637.912 1142.92 635.739L1127.65 630.892L1115.7 637.903C1114.43 638.648 1113.04 639.172 1111.6 639.452C1104.55 640.819 1097.73 636.213 1096.36 629.164L1092.73 610.413L1092.5 610.341L1070 561.341L985 493.341L915.659 489.209C906.033 488.636 897.666 495.749 896.682 505.342L860.849 854.878L861.31 872.839Z" fill="#7AC6FF"/>
<path fill-rule="evenodd" clip-rule="evenodd" d="M1171.12 507.335C1176.28 503.229 1188.61 506.735 1187.74 516.546C1186.88 526.357 1179.95 541.953 1168.28 532.057C1156.62 522.161 1165.97 511.44 1171.12 507.335ZM1076.06 511.051C1078.58 504.962 1091.06 502.051 1095.06 511.051C1099.06 520.051 1100.56 537.051 1085.56 534.051C1070.56 531.051 1073.55 517.139 1076.06 511.051Z" fill="white"/>
<path fill-rule="evenodd" clip-rule="evenodd" d="M1167.06 522.142C1167.08 520.761 1168.22 519.662 1169.6 519.686L1180.6 519.878C1181.98 519.902 1183.08 521.041 1183.05 522.421C1183.03 523.802 1181.89 524.901 1180.51 524.877L1169.51 524.685C1168.13 524.661 1167.03 523.522 1167.06 522.142ZM1079.5 522.201C1079.53 520.821 1080.66 519.721 1082.04 519.745L1093.04 519.937C1094.42 519.961 1095.52 521.1 1095.5 522.48C1095.47 523.861 1094.34 524.961 1092.96 524.936L1081.96 524.744C1080.58 524.72 1079.48 523.582 1079.5 522.201Z" fill="#334E62"/>
<path fill-rule="evenodd" clip-rule="evenodd" d="M721.651 1049.25L706 1133.34L801.451 1132.84C805.869 1132.82 809.432 1129.22 809.409 1124.8C809.402 1123.45 809.052 1122.12 808.394 1120.94L807.174 1118.76L787.051 1109.23L783.697 1049.81L721.651 1049.25Z" fill="#437BA6"/>
<path fill-rule="evenodd" clip-rule="evenodd" d="M694.651 764.355L562.698 785.993C561.063 786.261 559.955 787.804 560.223 789.439C560.418 790.631 561.31 791.589 562.485 791.871L647.848 812.308L654.044 854.359C654.276 855.934 655.699 857.053 657.284 856.909L720.311 851.168L734.57 881.336C735.009 882.263 735.891 882.902 736.908 883.03L795.492 890.396L805.591 901.381C807.157 903.085 809.73 903.394 811.655 902.11C813.558 900.84 814.198 898.342 813.141 896.314L808.713 887.819C808.445 887.306 808.183 886.79 807.926 886.272L765.524 800.719C752.452 774.346 723.698 759.592 694.651 764.355Z" fill="#437BA6"/>
<path fill-rule="evenodd" clip-rule="evenodd" d="M731.849 714.093L670.195 757.888C668.845 758.848 666.972 758.531 666.012 757.18C665.381 756.291 665.281 755.131 665.752 754.148L737.6 604.021L681.172 631.185C679.679 631.904 677.887 631.276 677.168 629.783C676.786 628.99 676.772 628.069 677.129 627.265L741.008 483.368L702.878 503.569C701.414 504.345 699.599 503.786 698.823 502.322C698.38 501.486 698.357 500.489 698.763 499.633L749.248 393.085L731.849 714.093ZM953.043 323.639L898.72 383.97C896.872 386.022 893.71 386.188 891.658 384.34C890.169 383 889.625 380.9 890.274 379.005L905.554 334.385L813.496 401.684C811.266 403.313 808.138 402.827 806.508 400.598C805.438 399.134 805.244 397.205 806.003 395.557L837.109 327.956L953.043 323.639Z" fill="#334E62"/>
<path fill-rule="evenodd" clip-rule="evenodd" d="M675 974.341L631.088 983.079C629.463 983.402 628.408 984.982 628.731 986.607C628.795 986.925 628.909 987.23 629.07 987.512L635.333 998.454L597.876 1008.26C596.273 1008.68 595.314 1010.32 595.733 1011.92C595.879 1012.48 596.183 1012.99 596.609 1013.37L604.773 1020.86L565.133 1030.96C563.528 1031.37 562.558 1033 562.967 1034.61C563.207 1035.55 563.889 1036.32 564.796 1036.67L577.547 1041.58L534.514 1058.22C532.968 1058.81 532.2 1060.55 532.797 1062.1C533.165 1063.05 533.991 1063.75 534.99 1063.95L551.432 1067.34L675 974.341Z" fill="#334E62"/>
<path fill-rule="evenodd" clip-rule="evenodd" d="M1107.79 538.942C1107.67 544.904 1077.38 511.174 1039.24 426.902C1025.61 396.777 1003.42 336.81 972.665 247L1030.81 344.17L1042.64 278.021L1064.83 401.598L1082.47 372.01C1099.54 474.139 1107.98 529.783 1107.79 538.942ZM1164.86 534.07C1162.15 537.806 1157.94 502.88 1171.1 432.335C1175.81 407.117 1188.29 359.119 1208.56 288.341L1202.32 375.99L1239 339.208L1198.42 427.64L1222.61 416.684C1188.27 489.202 1169.02 528.331 1164.86 534.07Z" fill="#334E62"/>
<path d="M1165.93 561.377C1165.73 561.89 1165.14 562.141 1164.63 561.937C1164.12 561.733 1163.87 561.152 1164.07 560.639C1173.29 537.418 1189.77 531.522 1212.95 543.113C1219.39 546.334 1226.06 552.456 1233.93 561.887C1237.11 565.706 1240.46 570.004 1244.59 575.541C1246.8 578.509 1254.49 588.977 1255.54 590.397C1270.31 610.334 1280.1 621.583 1290.97 629.623C1304.77 639.83 1318.12 642.305 1332.09 635.931C1337.2 633.597 1341.82 631.293 1345.93 629.021C1360.75 620.838 1366.13 602.193 1357.95 587.376C1356.39 584.565 1354.41 582.016 1352.07 579.821C1344.82 573.034 1333.44 573.407 1326.65 580.654C1326.13 581.214 1325.64 581.807 1325.19 582.43L1322.31 586.426C1321.99 586.874 1321.36 586.975 1320.92 586.652C1320.47 586.329 1320.37 585.704 1320.69 585.256L1323.57 581.26C1324.07 580.569 1324.61 579.91 1325.19 579.287C1332.74 571.233 1345.38 570.819 1353.43 578.361C1355.93 580.699 1358.04 583.415 1359.7 586.409C1368.41 602.193 1362.68 622.055 1346.9 630.771C1342.74 633.07 1338.08 635.396 1332.92 637.751C1318.23 644.454 1304.13 641.84 1289.78 631.231C1278.7 623.037 1268.82 611.678 1253.94 591.587C1252.88 590.162 1245.19 579.698 1242.98 576.737C1238.87 571.226 1235.55 566.955 1232.39 563.169C1224.68 553.932 1218.19 547.972 1212.05 544.902C1189.9 533.827 1174.71 539.264 1165.93 561.377ZM1096.57 564.377C1087.79 542.264 1072.6 536.827 1050.45 547.902C1042.27 551.989 1034.21 561.761 1023.68 578.973C1021.95 581.805 1020.13 584.848 1017.98 588.543C1017.13 589.991 1016.26 591.482 1015.11 593.47C1015.23 593.265 1012.88 597.314 1012.23 598.44C998.449 622.177 990.654 633.696 981.203 642.287C968.709 653.644 956.207 655.331 942.913 645.65C920.336 629.208 916.312 610.634 931.019 590.384C937.877 580.942 951.089 578.847 960.53 585.705C963.915 588.163 966.494 591.57 967.94 595.496C968.131 596.014 967.865 596.589 967.347 596.78C966.829 596.97 966.254 596.705 966.063 596.187C964.754 592.633 962.419 589.548 959.355 587.323C950.807 581.115 938.846 583.011 932.638 591.559C918.61 610.873 922.367 628.213 944.09 644.033C956.559 653.113 968.022 651.565 979.858 640.807C989.1 632.406 996.828 620.985 1010.5 597.436C1011.15 596.311 1013.5 592.262 1013.38 592.467C1014.53 590.477 1015.4 588.984 1016.25 587.534C1018.41 583.828 1020.23 580.774 1021.97 577.929C1032.7 560.403 1040.93 550.425 1049.55 546.113C1072.74 534.522 1089.21 540.418 1098.43 563.639C1098.63 564.152 1098.38 564.733 1097.87 564.937C1097.36 565.141 1096.78 564.89 1096.57 564.377Z" fill="#334E62"/>
<path fill-rule="evenodd" clip-rule="evenodd" d="M1097.5 563.841C1112.07 565.287 1121.91 569.787 1127 577.341C1132.09 584.895 1130.43 595.228 1122 608.341L1097.5 563.841Z" fill="#437BA6"/>
</svg>
